X:48
T:Polska efter Bengt Bixo
T:(SvL Jämtland 48)
S:Bengt Bixo
B:Svenska Låtar Jämtland
R:Polska
O:Mörsil, Jämtland
M:3/4
L:1/8
K:C
vge fg (3.a(fa)|ge (3g(ag) (3.f(af)|ec eg fa|(3.g(fe) de fd|
ec (eg) (f>a)|(3.g(fe) d>e (3.f(ed)|(3.e(gf) (3.d(fd) ec|BG/B/ c4:|
|:vG2 e2 d2|c2 (3(dc)B c2|Bc dg ec|B(A/B/) cA G>c|
Bc (3.d(cB) c>e|fg (3.a(gf) (3.e(fg)|(3f(ed) (3.c(Bd) (3.c(BA)|(3G(Bd) c4:|

